X:1
T:The Virgin is hushing - Barnby
T:James Gibb editions
T:The Virgin is hushing her Baby to rest - Barnby
T:#
%%score [ ( 1 2 ) ( 3 4 ) ]
L:1/8
Q:1/4=100
M:3/4
K:C
V:1 treble nm="Midi_74"
V:2 treble 
V:3 bass nm="Midi_74"
V:4 bass 
V:1
"^W. Chatterton Dix\n(1837-1898)""^The Virgin is hushing her Baby to rest" E2 | G2 G2 EF | %2
 G2 G2 EF | G2 A2 c2 | c4 c2 | B3 ^G A2 | B3 ^G A2 | G2 G2"^Joseph Barnby\n(1838-96)" c2 | d4 d2 | %9
 d3 d c2 | B3 B A2 | ^G2 A2 B2 | (c3 B) cd | e4 c2 | c4 B2 | c6 || z2 E2 | G2 G2 EF | G2 G2 EF | %19
 G2 A2 c2 | c4 c2 | B3 ^G A2 | B3 ^G A2 | G2 G2 c2 | d4 d2 | d3 d c2 | B3 B A2 | ^G2 A2 B2 | %28
 (c3 B) cd | e4 c2 | c4 B2 | c6 || z2 E2 | G2 G2 EF | G2 G2 EF | G2 A2 c2 | c4 c2 | B3 ^G A2 | %38
 B3 ^G A2 | G2 G2 c2 | d4 d2 | d3 d c2 | B3 B A2 | ^G2 A2 B2 | (c3 B)[Q:1/4=99] c[Q:1/4=98]d | %45
[Q:1/4=95] e4[Q:1/4=92] c2 |[Q:1/4=89] c4[Q:1/4=85] B2 |[Q:1/4=85] c6 |] %48
V:2
 E2 | D2 CD E2 | D2 CD E2 | D2 F2 F2 | E4 E2 | F2 F2 F2 | F2 F2 F2 | F2 E2 ^F2 | G4 G2 | F3 F E2 | %10
w: The|Vir- gin * is|hush- ing * her|Ba- by to|rest, With|"Lul- la- by,|lul- la- by,|beau- ti- ful|Child!" She|press- es her|
 ^D2 D2 ^F2 | E2 E2 E2 | E4 ^F2 | G4 EF | (G3 A) GF | E6 || z2 E2 | D2 CD E2 | D2 CD E2 | %19
w: won- der- ful|Son to her|breast, Right|glad then *|now * is *|she!|The|Babe she * is|nurs- ing * is|
 D2 F2 F2 | E4 E2 | F2 F2 F2 | F2 F2 F2 | F2 E2 ^F2 | G4 G2 | F3 F E2 | ^D2 D2 ^F2 | E2 E2 E2 | %28
w: come down to|save, "O|lul- la- by,|lul- la- by,|beau- ti- ful|Child!" Poor|sin- ners from|dark- ness and|powers of the|
 E4 ^F2 | G4 EF | (G3 A) GF | E6 || z2 E2 | D2 CD E2 | D2 CD E2 | D2 F2 F2 | E4 E2 | F2 F2 F2 | %38
w: grave; Right|glad then *|now * is *|she!|See|Je- sus * looks|up in * his|Mo- ther's kind|face, "O|lul- la- by,|
 F2 F2 F2 | F2 E2 ^F2 | G4 G2 | F3 F E2 | ^D2 D2 ^F2 | E2 E2 E2 | E4 ^F2 | G4 EF | (G3 A) GF | %47
w: lul- la- by,|beau- ti- ful|Child!" He|smiles on that|Mo- ther, the|Maid full of|Grace. Right|glad then *|now * is *|
 E6 |] %48
w: she!|
V:3
 C2 | B,2 A,B, C2 | B,2 A,B, C2 | B,2 A,2 A,2 | G,4 C2 | D2 D2 C2 | D2 D2 C2 | D2 C2 C2 | B,4 B,2 | %9
 A,3 A, A,2 | A,2 ^F,2 B,2 | B,2 E2 D2 | C4 C2 | C3 D E2 | D4 G,2 | G,6 || z2 C2 | B,2 A,B, C2 | %18
 B,2 A,B, C2 | B,2 A,2 A,2 | G,4 C2 | D2 D2 C2 | D2 D2 C2 | D2 C2 C2 | B,4 B,2 | A,3 A, A,2 | %26
 A,2 ^F,2 B,2 | B,2 E2 D2 | C4 C2 | C3 D E2 | D4 G,2 | G,6 || z2 C2 | B,2 A,B, C2 | B,2 A,B, C2 | %35
 B,2 A,2 A,2 | G,4 C2 | D2 D2 C2 | D2 D2 C2 | D2 C2 C2 | B,4 B,2 | A,3 A, A,2 | A,2 ^F,2 B,2 | %43
 B,2 E2 D2 | C4 C2 | C3 D E2 | D4 G,2 | G,6 |] %48
V:4
 C,2 | C,2 C,2 C,2 | C,2 C,2 C,2 | C,2 C,2 C,2 | C,4 G,2 | ^G,2 B,2 A,2 | ^G,2 B,2 A,2 | %7
 B,2 C2 A,2 | G,4 G,2 | D,3 D, A,,2 | B,,2 B,,2 ^D,2 | E,2 ^F,2 ^G,2 | A,4 A,2 | G,4 G,2 | %14
 G,,4 G,2 | C,6 || z2 C,2 | C,2 C,2 C,2 | C,2 C,2 C,2 | C,2 C,2 C,2 | C,4 G,2 | ^G,2 B,2 A,2 | %22
 ^G,2 B,2 A,2 | B,2 C2 A,2 | G,4 G,2 | D,3 D, A,,2 | B,,2 B,,2 ^D,2 | E,2 ^F,2 ^G,2 | A,4 A,2 | %29
 G,4 G,2 | G,,4 G,2 | C,6 || z2 C,2 | C,2 C,2 C,2 | C,2 C,2 C,2 | C,2 C,2 C,2 | C,4 G,2 | %37
 ^G,2 B,2 A,2 | ^G,2 B,2 A,2 | B,2 C2 A,2 | G,4 G,2 | D,3 D, A,,2 | B,,2 B,,2 ^D,2 | %43
 E,2 ^F,2 ^G,2 | A,4 A,2 | G,4 G,2 | G,,4 G,2 | C,6 |] %48

